!!!!SEGMENT: pl-wtm--r-457-m--001_moniuszko-stanislaw--jawnuta-tercet-no-8b.krn
!!!cenid: 18xx:3037
!!!COM: Moniuszko, Stanisław
!!!COM-rismid: pe30008351
!!!CDT: 1819/05/05-1872/06/04
!!!CNT: Polish
!!!GTL: Jawnuta
!!!OTL: Tercet - No. 8B
!!!PDT:
!!!AGN: Secular
!!!SMS-siglum: PL-Wtm
!!!SMS-shelfmark: R 457/M
!!!SMS-shelfwork: 001 G
!!!SMS-variant:
!!!SMS-altvar:
!!!NIFC-rismid: 1001088414
!!!URL-scan: http://repozytorium.nifc.pl/skany/pl-wtm-nut--r457m
!!!ONB-nifc: UWAGA: No. 8B (skan 0003) i No. 9 (od skanu 0004)
!!!OMD: Largo
!!!AIN: 5 empty
!!!key:
**kern	**dynam	**kern	**dynam	**kern	**dynam	**kern	**dynam	**kern	**dynam
*group 2	*group 2	*group 2	*group 2	*group 1	*group 1	*group 1	*group 1	*group 1	*group 1
*part5	*part5	*part4	*part4	*part3	*part3	*part2	*part2	*part1	*part1
*staff5	*	*staff4	*	*staff3	*	*staff2	*	*staff1	*
*I""Corni	*	*I""Corni	*	*	*	*	*	*	*
*Iempty	*	*Iempty	*	*Iempty	*	*Iempty	*	*Iempty	*
*I"in F.	*	*I"in F.	*	*	*	*	*	*	*
*clefG2	*	*clefG2	*	*clefF4	*	*clefG	*	*clefG2	*
*ITrd4c7	*	*ITrd4c7	*	*	*	*ITrd8c12	*	*ITrd8c12	*
*k[b-]	*	*k[b-]	*	*k[]	*	*k[]	*	*k[]	*
*F:	*	*F:	*	*F:	*	*F:	*	*F:	*
*M4/4	*	*M4/4	*	*M4/4	*	*M4/4	*	*M4/4	*
*met(c)	*	*met(c)	*	*met(c)	*	*met(c)	*	*met(c)	*
*all\right	*	*all\right	*	*all\right	*	*all\right	*	*all\right	*
!	!	!	!	!	!	!	!	!LO:TX:a:t=No 8 b&colon;)	!
8.r	f	8.r	f	4r	.	4r	.	4r	.
16c/ 16F/	.	16f/ 16A/	.	.	.	.	.	.	.
=1	=1	=1	=1	=1	=1	=1	=1	=1	=1
*	*	*2\right	*	*	*	*	*	*	*
2f/ 2F;/	>	2a\ 2c;\	>	2r;	.	2r;	.	2r;	.
4r	]	4r	]	4r	.	2r	.	2r	.
8.A/L	.	4r	.	8.A\	.	.	.	.	.
16F/Jk	.	.	.	16F\	.	.	.	.	.
=2	=2	=2	=2	=2	=2	=2	=2	=2	=2
*	*	*^	*	*	*	*	*	*	*
*	*	*	*	*	*2\right	*	*	*	*	*
(2c^/	.	2r	2ryy	.	2c\	.	2r	.	1r	.
8A/)	.	2r	4r	.	4A\	.	4r	.	.	.
8r	.	.	.	.	.	.	.	.	.	.
!	!	!LO:TX:b:t=2do	!	!	!	!	!	!	!	!
8.F/L	.	.	8.F/L	.	8F\	.	8F/	.	.	.
.	.	.	.	.	8A\	.	8A/	.	.	.
16A/Jk	.	.	16A/Jk	.	.	.	.	.	.	.
=3	=3	=3	=3	=3	=3	=3	=3	=3	=3	=3
*	*	*	*	*	*	*	*2\right	*	*	*
2d^/	.	2raa	2d^/	.	2d\	.	2d\	.	2r	.
8c/	.	4raa	8c/	.	8c\	.	8c\	.	4r	.
8r	.	.	8r	.	8r	.	8r	.	.	.
8.c/L	.	8.c/L	8.c\L	.	8.A\	.	8.A/	.	8.c\	.
16A/Jk	.	16A/Jk	16A\Jk	.	16F\	.	16F/	.	16A/	.
*	*	*v	*v	*	*	*	*	*	*	*
=4	=4	=4	=4	=4	=4	=4	=4	=4	=4
*^	*	*	*	*	*	*	*	*	*
4..c/ 4..F/	4..ryy	.	4..f/ 4..A/	.	4..c\	.	4..A/	.	4..f\	.
16A/	16F\	.	16c/ 16F/	.	16F\	.	16A/	.	16c\	.
4..G/ 4..C/	4..ryy	.	4..c/ 4..E/	.	4..E\	.	4..G/	.	4..c\	.
16G/ 16C/	16ryy	.	16B-/ 16E/	.	16C/	.	16G/	.	16B\	.
*v	*v	*	*	*	*	*	*	*	*	*
*clefF4	*	*	*	*	*	*	*	*	*
*ITrd-3c-5	*	*	*	*	*	*	*	*	*
=5	=5	=5	=5	=5	=5	=5	=5	=5	=5
[2F/ [2FF/	.	[2A/ [2C/	.	2F\	.	2F/	.	2A/	.
!LO:N:vis=8	!	!LO:N:vis=8	!	!	!	!	!	!	!
4F/] 4FF/]	.	4A/] 4C/]	.	4r	.	4r	.	4r	.
8.AA/L	.	8.A/L 8.F/	.	8.F\	.	8.A/	.	8.A/	.
16C/Jk	.	16c/Jk 16F/	.	16A\	.	16A/	.	16c\	.
!LO:CL:ed	!	!	!	!	!	!	!	!	!
*clefG2	*	*	*	*	*	*	*	*	*
*ITrd4c7	*	*	*	*	*	*	*	*	*
!!LO:LB:g=original
=6	=6	=6	=6	=6	=6	=6	=6	=6	=6
*	*	*	*	*	*	*	*	*2\right	*
!LO:TX:t=P:problem=brak zmiany klucza	!	!	!LO:DY:rj	!	!	!	!	!	!
2c^/	.	2f/ 2A^/	f	2A\	.	2c\	.	2f\	.
4d-X^/	.	4f/ 4B-^/	.	4B\	.	4d-X\	.	8f\	.
.	.	.	.	.	.	.	.	8r	.
.	.	8qg/	.	.	.	.	.	8qg/	.
8.d-^/L	.	8.f/L 8.B-/	.	8.B\	.	8.d-\	.	8.f\	.
16d-/Jk	.	16e/Jk 16B-/	.	16B\	.	16d-\	.	16e\	.
=7	=7	=7	=7	=7	=7	=7	=7	=7	=7
*	*	*^	*	*	*	*	*	*	*
2c/	.	(2f/	(>4.A\	.	4.A\	.	2c\	.	2f\	.
.	.	.	16G\LL	.	16G\LL	.	.	.	.	.
.	.	.	16F\JJ	.	16F\JJ	.	.	.	.	.
8G/	.	8c/)	8E\)	.	8E\	.	8G/	.	8c\	.
8r	.	8r	8ryy	.	8r	.	8r	.	8r	.
!	!	!	!	!LO:DY:rj	!	!	!	!	!	!
8.A/L 8.F/	.	8.c/L 8.F/	8.ryy	ff	8.F\	.	8.A/	.	8.c\L	.
16A/Jk 16F/	.	16d/Jk 16F/	16ryy	.	16F\	.	16A/	.	16d\Jk	.
*	*	*v	*v	*	*	*	*	*	*	*
=8	=8	=8	=8	=8	=8	=8	=8	=8	=8
8c/ 8C^/	.	8e/ 8G^/	.	8c\	.	8G/	.	8e\	.
8r	.	8r	.	8r	.	8r	.	8r	.
8.c/L 8.F/	.	8.c/L 8.A/	.	8.F\	.	8.A/	.	8.c\	.
16c/Jk 16F/	.	16d/Jk 16A/	.	16F\	.	16A/	.	16d\	.
4c/ 4G/	.	4e/ 4G/	.	4G\	.	4c\	.	4e\	.
4BX/ 4G/	.	4d/ 4F/	.	4G\	.	4Bn\	.	4d\	.
=9	=9	=9	=9	=9	=9	=9	=9	=9	=9
2G/ 2C;/	.	2c/ 2E/	.	2c;\	.	2.c;\	.	2.c;\	.
4r	.	4r;	.	4ryy	.	.	.	.	.
!	!	!LO:TX:b:t=Vivo	!	!	!	!	!	!	!
4r	.	4r	.	4ryy	.	4r	.	4r	.
!	!	!	!	!	!	!LO:CL:ed	!	!	!
*	*	*	*	*	*	*clefF4	*	*	*
=10||	=10||	=10||	=10||	=10||	=10||	=10||	=10||	=10||	=10||
*M2/4	*	*M2/4	*	*M2/4	*	*M2/4	*	*M2/4	*
*	*	*	*	*	*	*ITrd0c0	*	*	*
!	!LO:DY:a	!	!LO:DY:t=pp.	!	!	!	!	!	!
8A'/L	pp	(16c/LL 16A^>/	pp	8A\|	.	16A\LL	.	16c\LL	.
.	.	16d/JJ 16BX/)	.	.	.	16Bn\JJ	.	16d\JJ	.
8E'/	.	8e/L 8c'/	.	8E\|	.	8c\|	.	8e\|	.
8A'/	.	8e/ 8c'/	.	8A\|	.	8c\|	.	8d\|	.
8E'/J	.	8e/J 8c'/	.	8E\|	.	8c\|	.	8e\|	.
=11	=11	=11	=11	=11	=11	=11	=11	=11	=11
8G#X'/L	.	(16d/LL 16BX^>/	.	16Bn^\LL	.	16d^\LL	.	8.e^\	.
.	.	16c/J 16A/	.	16A\JJ	.	16c\JJ	.	.	.
8E'/	.	8BnX/ 8G#X/)	.	8G#X\|	.	8Bn\|	.	.	.
.	.	.	.	.	.	.	.	16f\	.
8G#'/	.	8B/ 8G#'/	.	8G#\|	.	8B\|	.	8e\	.
8E'/J	.	8B/J 8G#'/	.	8G#\|	.	8B\|	.	8e\	.
!!LO:LB:g=original
=12	=12	=12	=12	=12	=12	=12	=12	=12	=12
*^	*	*	*	*	*	*	*	*	*
*	*tremolo	*	*	*	*	*	*	*	*	*
!	!LO:TX:t=....	!	!	!	!	!	!	!	!	!
8A/L	8A'\L	???	(16c/LL 16A^/	.	8A\	.	16A^\LL	.	16c^\LL	.
.	.	.	16d/J 16BX/	.	.	.	16Bn\JJ	.	16d\JJ	.
8E/	8A'\	.	8e/ 8c'/)	.	8A\	.	8c'\	.	8e'\	.
8A/	8A'\	.	8e/ 8c'/	.	8A\	.	8c'\	.	8e'\	.
8A/J	8A'\J	.	8e/J 8c'/	.	16Bn\LL	.	8c'\	.	8e'\	.
.	.	.	.	.	16A\JJ	.	.	.	.	.
*	*Xtremolo	*	*	*	*	*	*	*	*	*
*v	*v	*	*	*	*	*	*	*	*	*
=13	=13	=13	=13	=13	=13	=13	=13	=13	=13
*	*	*^	*	*	*	*	*	*	*
(4BX/ (>4G#X/	.	(4.e/	(4d\	.	(4G#X\	.	(4Bn\	.	4.e^\	.
(>4B-/ 4G/)	.	.	4B-\)	.	4Gn\)	.	4B-X\)	.	.	.
.	.	8c/)	.	.	.	.	.	.	8c\	.
*	*	*v	*v	*	*	*	*	*	*	*
=14	=14	=14	=14	=14	=14	=14	=14	=14	=14
8.A/L 8.F/))	.	8.c/L 8.A/	<	8.F\	<	8.A\	<	8.c\	<
16c/K 16F/	.	16d/K 16A/	.	16F\	.	16A\	.	16d\	.
8c/ 8F/	.	8e/ 8A/	.	8F\	.	8A\	.	8e\	.
8c/J 8F/	.	8f/J 8A/	[	8F\	[	8c\	[	8f\	[
=15	=15	=15	=15	=15	=15	=15	=15	=15	=15
!	!	!	!LO:DY:rj	!	!LO:DY:rj	!	!LO:DY:rj	!	!LO:DY:rj
8.d/L 8.BB-/	.	8.g/L 8.B-/	f	8.B\	f >	8.d\	f >	8.g\	f >
16d/K 16BB-/	.	16f/K 16B-/	.	16B\	.	16d\	.	16f\	.
8c/ 8BB-/	.	8e/ 8F/	.	8B\	]]	8c\	.	8e\	.
8B-/J 8BB-/	.	8d/J 8F/	.	8B\	.	8B\	]	8d\	]
=16	=16	=16	=16	=16	=16	=16	=16	=16	=16
*^	*	*^	*	*	*	*	*	*	*
8A/L	8C\	.	8c/L 8F/	8F\L	.	8c\	.	8A\	.	8c\	.
8F/	8r	.	8A/ 8F/	8F\J	.	8c\	.	8F\	.	8A/	.
8E/	4r	.	8G/ 8C/	8ryy	.	8C/	.	8E\	.	8G/	.
8G/J	.	.	8B-/J 8C/	8ryy	.	8C/	.	8G\	.	8B\	.
*v	*v	*	*	*	*	*	*	*	*	*	*
*	*	*v	*v	*	*	*	*	*	*	*
=17	=17	=17	=17	=17	=17	=17	=17	=17	=17
4A/	.	(>4d/ 4F/	.	4F\	.	4A\	.	4d\	.
8A/	.	8c/ 8A/)	.	8A\	.	8A\	.	8c\	.
8r	.	8r	.	8r	.	8r	.	8r	.
=18	=18	=18	=18	=18	=18	=18	=18	=18	=18
*tremolo	*	*	*	*	*	*	*	*	*
!LO:TX:t=....	!	!	!	!	!	!	!	!	!
8A/L 8AA/	.	(16c/LL 16A^/	.	8A\	.	16A\LL	.	16c\LL	.
.	.	16d/JJ 16BX/)	.	.	.	16Bn\JJ	.	16d\JJ	.
8A/ 8AA/	.	8e/L 8c'/	.	8A\	.	8c\	.	8e\	.
8A/ 8AA/	.	8e/ 8c'/	.	8.e^^\	.	8.c\	.	8.a^^\	.
8A/J 8AA/	.	8e/J 8c'/	.	.	.	.	.	.	.
.	.	.	.	16A\	.	16c\	.	16e\	.
=19	=19	=19	=19	=19	=19	=19	=19	=19	=19
8E/L 8AA/	.	(16d/LL 16BX^/	.	16Bn\LL	.	16d\LL	.	8.e\	.
.	.	16c/JJ 16A/	.	16A\JJ	.	16c\JJ	.	.	.
8E/ 8AA/	.	8BnX/L 8G#X'/)	.	8G#X\	.	8Bn\	.	.	.
.	.	.	.	.	.	.	.	16f\	.
8E/ 8AA/	.	8B/ 8G#'/	.	8G#\	.	8B\	.	8e\	.
8E/J 8AA/	.	8B/J 8G#'/	.	8G#\	.	8B\	.	8e\	.
!!LO:LB:g=original
=20	=20	=20	=20	=20	=20	=20	=20	=20	=20
*^	*	*	*	*	*	*	*	*	*
*tremolo	*Xtremolo	*	*	*	*	*	*	*	*	*
!	!LO:TX:t=....	!	!	!	!	!	!	!	!	!
8A/L	8AA\L	.	16c/LL 16A/	.	8A\	.	16A\LL	.	16c\LL	.
.	.	.	16d/J 16BX/	.	.	.	16B\JJ	.	16d\JJ	.
8A/	8AA\	.	8e/J 8c/	.	8E\	.	8c\	.	8e\	.
8A/	8A\	.	8e/L 8c^/	.	8c^^\	.	8e^\	.	8e\	.
8A/J	8A\J	.	16d/L 16B/	.	16Bn\LL	.	16d\LL	.	8e\	.
.	.	.	16c/JJ 16A/	.	16A\JJ	.	16c\JJ	.	.	.
*v	*v	*	*	*	*	*	*	*	*	*
=21	=21	=21	=21	=21	=21	=21	=21	=21	=21
*	*	*^	*	*	*	*	*	*	*
(4BX/ (>4G#X/	.	(4.e/	(>4d\	.	(4G#X\	.	(4Bn\	.	(4.e\	.
4B-/ 4G/)	.	.	(4c\)	.	4Gn\)	.	4B-X\)	.	.	.
.	.	8c/)	.	.	.	.	.	.	8c\)	.
*	*	*v	*v	*	*	*	*	*	*	*
=22	=22	=22	=22	=22	=22	=22	=22	=22	=22
*^	*	*	*	*	*	*	*	*	*
!	!	!LO:DY:rj	!	!	!	!	!	!	!LO:TX:b:t=ralent	!
8F^/L)	8F\L	ff	8c/L 8A^/)	ff^^	8.F\	.	8.A\	.	8.c\	.
16r	16ryy	.	16r	.	.	.	.	.	.	.
!	!	!	!LO:TX:b:i:t=ralent	!	!	!	!	!	!	!
16A/K	16F\K	.	16d/K 16F/	.	16F\	.	16A\	.	16d\	.
8B-/	8F\	.	8e/ 8G/	.	8G\	.	8B\	.	8e\	.
8c/J	8F\J	.	8f/J 8A/	.	8A\	.	8c\	.	8f\	.
*v	*v	*	*	*	*	*	*	*	*	*
=23	=23	=23	=23	=23	=23	=23	=23	=23	=23
8.d/L 8.BB-^/	.	8.g/L 8.B-^/	.	8.B^\	.	8.d^\	.	8.g^\	.
16d/ 16BB-/	.	16f/K 16B-/	.	16B\	.	16c\	.	16f\	.
8F/ 8BB-/	.	8e/ 8c/	.	8c\	.	8B\	.	8e\	.
!	!	!LO:TX:a:t=vi=	!	!	!	!	!	!	!
8F/J 8BB-/	.	8d/J 8B-/	.	8d\	.	8A\	.	8d\	.
=24	=24	=24	=24	=24	=24	=24	=24	=24	=24
*^	*	*	*	*	*	*	*	*	*
!LO:TX:a:t=lento	!	!	!LO:TX:a:t==de	!	!	!	!	!	!	!
8F/L|	8C\	.	8c/|L 8A/	.	8c\	.	8A\	.	8c\	.
.	.	.	.	.	.	.	.	.	8qg^/	.
8c^^/	8r	.	8c/ 8A^^>/	.	8c^\	.	8A^\	.	8f^\	.
8B-^^/	4r	.	8c/ 8G^^>/	.	8c^\	.	8G^\	.	8e^\	.
8A^^/J	.	.	8c/J 8F^^>/	.	8c^\	.	8F^\	.	8f^\	.
=25	=25	=25	=25	=25	=25	=25	=25	=25	=25	=25
*	*	*	*^	*	*	*	*	*	*	*
8c/	2r;>	.	4.c;/	2C^^\	.	4.c^<;\	.	4.f^<;\	.	4.a^<;\	.
8r	.	.	.	.	.	.	.	.	.	.	.
4r;	.	.	.	.	.	.	.	.	.	.	.
!	!	!	!LO:TX:a:t=re=	!	!	!	!	!	!	!	!
.	.	.	8e/	.	.	8B\	.	8c\	.	8g\	.
=26	=26	=26	=26	=26	=26	=26	=26	=26	=26	=26	=26
*	*2\right	*	*	*	*	*	*	*	*	*	*
!	!	!	!LO:TX:a:t==tro.	!	!	!	!	!	!	!	!
2c;/	2F\	.	2f;/	2A^^\	.	2A;\	.	2c\ 2F;\	.	2f;\	.
*v	*v	*	*	*	*	*	*	*	*	*	*
*	*	*v	*v	*	*	*	*	*	*	*
==	==	==	==	==	==	==	==	==	==
*-	*-	*-	*-	*-	*-	*-	*-	*-	*-
!!!system-decoration: ([s1,s2,s3]{s4,s5})
!!!ENC: Krzysztof Stępień
!!!END: 2021-09-07
!!!RDF**kern: | = vertical stroke
!!!RDF**kern: > = above
!!!RDF**kern: < = below
!!!EED: Andrzej Borzym
!!!EEV: 2021-09-23
